src/assets/icons/person4.svg

<?xml version="1.0" encoding="UTF-8"?>
<svg fill="none" viewBox="0 0 120 120" xmlns="http://www.w3.org/2000/svg">
<g clip-path="url(#a)">
<path d="m120 60c0-33.132-26.868-60-60-60s-60 26.868-60 60 26.868 60 60 60 60-26.868 60-60z" fill="#E5AA17"/>
<path d="m59.928 80.629c-18.67 0-33.64 5.3446-35.405 11.923-0.7981 2.9504-1.6929 8.5126-2.4426 13.906 10.326 8.44 23.555 13.519 37.944 13.519s27.594-5.079 37.944-13.519c-0.7739-5.393-1.6687-10.979-2.4426-13.906-1.8138-6.578-16.953-11.923-35.598-11.923z" fill="#E2A379"/>
<path d="m73.083 81.572c-4.0629-0.6046-8.5127-0.9431-13.156-0.9431-4.5949 0-8.9964 0.3144-13.011 0.919l13.083 21.934 13.084-21.91z" fill="#8E502E"/>
<path d="m24.522 92.576c-0.7981 2.9504-1.6929 8.5124-2.4426 13.905 10.326 8.44 23.555 13.519 37.944 13.519s27.594-5.079 37.944-13.519c-0.7739-5.393-1.6687-10.979-2.4426-13.905-1.3301-4.9577-10.181-9.1899-22.394-11.004l-13.132 21.91-13.083-21.934c-12.237 1.7896-21.064 6.0459-22.394 11.028z" fill="#9AE8F4"/>
<path d="m49.166 104.86h-15.236v2.539h15.236v-2.539z" fill="#D2FAFC"/>
<path d="m51.947 75.453c-8.4402 2.0799-14.462 7.3036-14.462 13.398v20.629h1.2092v-20.629c0-5.4898 5.4897-10.206 13.228-12.164 0.0484-0.3869 0.0484-0.798 0.0242-1.2334z" fill="#3F3F3F"/>
<path d="m68.053 75.453c0 0.4354 0 0.8465 0.0242 1.2334 7.763 1.9589 13.228 6.6747 13.228 12.164v3.7968h1.2092v-3.7726c0-6.1185-6.0217-11.342-14.462-13.422z" fill="#3F3F3F"/>
<path d="m38.114 111.42c2.2306 0 4.0387-1.808 4.0387-4.039 0-2.23-1.8081-4.039-4.0387-4.039-2.2305 0-4.0386 1.809-4.0386 4.039 0 2.231 1.8081 4.039 4.0386 4.039z" fill="#5E5E5E"/>
<path d="m38.114 110.91c1.95 0 3.5309-1.581 3.5309-3.531s-1.5809-3.531-3.5309-3.531-3.5308 1.581-3.5308 3.531 1.5808 3.531 3.5308 3.531z" fill="#828282"/>
<path d="m38.114 109.87c1.3757 0 2.4909-1.115 2.4909-2.491s-1.1152-2.491-2.4909-2.491-2.4909 1.115-2.4909 2.491 1.1152 2.491 2.4909 2.491z" fill="#5E5E5E"/>
<path d="m38.114 109.17c0.9884 0 1.7896-0.802 1.7896-1.79s-0.8012-1.79-1.7896-1.79-1.7896 0.802-1.7896 1.79 0.8012 1.79 1.7896 1.79z" fill="#828282"/>
<path d="m84.498 111.08c-1.4027 0-3.2648-0.024-4.861-0.87-2.0072-1.065-3.0471-3.169-3.0471-6.216v-5.2234h0.9673v5.2234c0 2.709 0.8223 4.474 2.5152 5.369 1.451 0.774 3.2406 0.774 4.5707 0.774h0.1451v0.967h-0.1451c-0.0484-0.024-0.0967-0.024-0.1451-0.024z" fill="#69696B"/>
<path d="m85.828 110.59c0 0.556-0.4595 1.015-1.0157 1.015s-1.0157-0.459-1.0157-1.015c0-0.557 0.4595-1.016 1.0157-1.016 0.532-0.024 1.0157 0.435 1.0157 1.016z" fill="#69696B"/>
<path d="m79.274 111.05h-0.1451-0.1451v-0.967h0.1451c1.3059 0 3.1197 0 4.5707-0.774 1.6929-0.895 2.5151-2.66 2.5151-5.369v-5.2237h0.9674v5.2237c0 3.071-1.0158 5.151-3.0472 6.215-1.5961 0.871-3.4583 0.895-4.8609 0.895z" fill="#8D8D8E"/>
<path d="m77.968 110.57c0 0.557 0.4595 1.016 1.0157 1.016 0.5563 0 1.0157-0.459 1.0157-1.016 0-0.556-0.4594-1.015-1.0157-1.015-0.5562-0.025-1.0157 0.435-1.0157 1.015z" fill="#8D8D8E"/>
<path d="m86.699 99.347c-0.3386 0-0.6046-0.266-0.6046-0.6046v-1.5961c0-2.3216-1.8864-4.208-4.208-4.208-2.3217 0-4.208 1.8864-4.208 4.208v1.5961c0 0.3386-0.266 0.6046-0.6046 0.6046s-0.6046-0.266-0.6046-0.6046v-1.5961c0-2.9746 2.4184-5.4172 5.4172-5.4172s5.4172 2.4184 5.4172 5.4172v1.5961c0 0.3144-0.2661 0.6046-0.6046 0.6046z" fill="#3F3F3F"/>
<path d="m69.408 68.222h-18.815c2.9263 8.8513 0.2419 12.89 0.2419 12.89l6.5054 3.1197h5.3204l6.5055-3.1197s-2.6844-4.0387 0.2418-12.89z" fill="#8E502E"/>
<path d="m79.299 42.37c0-22.346-8.6336-27.473-19.299-27.473-10.641 0-19.299 5.127-19.299 27.473 0 7.5695 1.3543 13.495 3.3857 18.065 4.4498 10.06 12.164 13.567 15.913 13.567s11.439-3.5066 15.913-13.567c2.0314-4.5707 3.3857-10.496 3.3857-18.065z" fill="#9B5C32"/>
<path d="m66.457 63.797s-3.4341 2.3216-6.4571 2.3216c-3.0229 0-6.457-2.3216-6.457-2.3216 0-0.3386 2.7327-1.2818 3.8936-1.4511 0.7255-0.1209 2.5634 0.6046 2.5634 0.6046s1.8138-0.7013 2.5152-0.6046c1.185 0.1693 3.9419 1.4511 3.9419 1.4511z" fill="#8C4B2F"/>
<path d="m66.457 63.797s-3.4341 3.2649-6.4571 3.2649c-3.0229 0-6.457-3.2649-6.457-3.2649s1.5719 0.3628 4.74 0.1693c0.532-0.0241 1.2334 0.387 1.6929 0.387 0.4111 0 1.0157-0.4353 1.4752-0.4112 3.3373 0.1935 5.006-0.1451 5.006-0.1451z" fill="#823F27"/>
<path d="m60 14.897c-11.778 0-20 6.1911-20 28.537 0 0 20-11.1 20-19.226v-9.3108z" fill="#141414"/>
<path d="m59.976 14.897c11.778 0 20.024 6.1911 20.024 28.537 0 0-20-11.1-20-19.226l-0.0242-9.3108z" fill="#141414"/>
<path d="m78.138 12.745h-36.276v15.236h36.276v-15.236z" fill="#E4F0F2"/>
<path d="m60 26.094c3.112 0 5.6348-2.5228 5.6348-5.6348s-2.5228-5.6348-5.6348-5.6348c-3.1121 0-5.6349 2.5228-5.6349 5.6348s2.5228 5.6348 5.6349 5.6348z" fill="#D61E1E"/>
<path d="m63.894 19.42h-7.763v2.0556h7.763v-2.0556z" fill="#E6E7E8"/>
<path d="m61.016 16.59h-2.0556v7.763h2.0556v-7.763z" fill="#E6E7E8"/>
<path d="m50.834 81.112s-3.5792 8.8755 9.0931 8.8755 9.2382-8.8755 9.2382-8.8755l-9.2382-4.4498-9.0931 4.4498z" fill="#8E502E"/>
<path d="m38.863 50.23c1.0399 6.0943 2.3216 6.3603 4.1838 6.0459l-1.9589-13.253c-1.8622 0.3386-3.2649 1.1366-2.2249 7.2068z" fill="#9B5C32"/>
<path d="m78.96 43.047-1.9589 13.253c1.838 0.3144 3.1439 0.0242 4.1838-6.046 1.0157-6.0943-0.3869-6.8923-2.2249-7.2067z" fill="#9B5C32"/>
<path d="m42.273 44.28c-0.0968-0.6529-0.121-1.2575-0.0968-1.717 0.0242-0.7013 0.1209-1.1367 0.1209-1.1367l-2.2732 0.8465v1.0399s0.2418-0.0726 0.6771-0.2177c-0.0242 0-0.0484 0.0242-0.0725 0.0242 0.3144 0.5321 0.7013 1.3543 1.0882 2.5393-0.0241 0 0.8707 0.653 0.5563-1.3785z" fill="#141414"/>
<path d="m77.848 42.564c0.0242 0.4837 0 1.0641-0.0968 1.717-0.3143 2.0315 0.5563 1.3785 0.5563 1.3785 0.3627-1.2092 0.7739-2.0072 1.0641-2.5393 0.3869 0.1451 0.6046 0.1935 0.6046 0.1935v-1.0399l-2.2491-0.8465s0.0967 0.4354 0.1209 1.1367z" fill="#141414"/>
</g>
<defs>
<clipPath id="a">
<rect width="120" height="120" fill="#fff"/>
</clipPath>
</defs>
</svg>

<svg width="120" height="120" viewBox="0 0 120 120" fill="none" xmlns="http://www.w3.org/2000/svg">
<g clip-path="url(#clip0_2_109)">
<path d="M120 60C120 26.8682 93.1318 0 60 0C26.8682 0 0 26.8682 0 60C0 93.1318 26.8682 120 60 120C93.1318 120 120 93.1318 120 60Z" fill="#E5AA17"/>
<path d="M59.9275 80.6288C41.2576 80.6288 26.2878 85.9734 24.5224 92.5514C23.7243 95.5018 22.8295 101.064 22.0798 106.457C32.4063 114.897 45.6348 119.976 60.0242 119.976C74.4136 119.976 87.6179 114.897 97.9686 106.457C97.1947 101.064 96.2999 95.4776 95.526 92.5514C93.7122 85.9734 78.5732 80.6288 59.9275 80.6288Z" fill="#E2A379"/>
<path d="M73.0834 81.5719C69.0205 80.9673 64.5707 80.6288 59.9274 80.6288C55.3325 80.6288 50.931 80.9432 46.9165 81.5478L59.9999 103.482L73.0834 81.5719Z" fill="#8E502E"/>
<path d="M24.5224 92.5756C23.7243 95.526 22.8295 101.088 22.0798 106.481C32.4063 114.921 45.6348 120 60.0242 120C74.4136 120 87.6179 114.921 97.9686 106.481C97.1947 101.088 96.2999 95.5018 95.526 92.5756C94.1959 87.6179 85.3446 83.3857 73.1318 81.5719L60 103.482L46.9166 81.5478C34.6796 83.3374 25.8525 87.5937 24.5224 92.5756Z" fill="#9AE8F4"/>
<path d="M49.1656 104.861H33.9298V107.4H49.1656V104.861Z" fill="#D2FAFC"/>
<path d="M51.9468 75.4534C43.5066 77.5333 37.4849 82.757 37.4849 88.8513V109.48H38.6941V88.8513C38.6941 83.3615 44.1838 78.6457 51.9226 76.6868C51.971 76.2999 51.971 75.8888 51.9468 75.4534Z" fill="#3F3F3F"/>
<path d="M68.0532 75.4534C68.0532 75.8888 68.0532 76.2999 68.0774 76.6868C75.8404 78.6457 81.3059 83.3615 81.3059 88.8513V92.6481H82.5151V88.8755C82.5151 82.757 76.4934 77.5333 68.0532 75.4534Z" fill="#3F3F3F"/>
<path d="M38.1136 111.415C40.3442 111.415 42.1523 109.607 42.1523 107.376C42.1523 105.146 40.3442 103.337 38.1136 103.337C35.8831 103.337 34.075 105.146 34.075 107.376C34.075 109.607 35.8831 111.415 38.1136 111.415Z" fill="#5E5E5E"/>
<path d="M38.1137 110.907C40.0637 110.907 41.6446 109.326 41.6446 107.376C41.6446 105.426 40.0637 103.845 38.1137 103.845C36.1637 103.845 34.5829 105.426 34.5829 107.376C34.5829 109.326 36.1637 110.907 38.1137 110.907Z" fill="#828282"/>
<path d="M38.1136 109.867C39.4893 109.867 40.6045 108.752 40.6045 107.376C40.6045 106 39.4893 104.885 38.1136 104.885C36.7379 104.885 35.6227 106 35.6227 107.376C35.6227 108.752 36.7379 109.867 38.1136 109.867Z" fill="#5E5E5E"/>
<path d="M38.1137 109.166C39.1021 109.166 39.9033 108.364 39.9033 107.376C39.9033 106.388 39.1021 105.586 38.1137 105.586C37.1253 105.586 36.3241 106.388 36.3241 107.376C36.3241 108.364 37.1253 109.166 38.1137 109.166Z" fill="#828282"/>
<path d="M84.4982 111.076C83.0955 111.076 81.2334 111.052 79.6372 110.206C77.63 109.141 76.5901 107.037 76.5901 103.99V98.7666H77.5574V103.99C77.5574 106.699 78.3797 108.464 80.0726 109.359C81.5236 110.133 83.3132 110.133 84.6433 110.133H84.7884V111.1H84.6433C84.5949 111.076 84.5466 111.076 84.4982 111.076Z" fill="#69696B"/>
<path d="M85.8283 110.593C85.8283 111.149 85.3688 111.608 84.8126 111.608C84.2564 111.608 83.7969 111.149 83.7969 110.593C83.7969 110.036 84.2564 109.577 84.8126 109.577C85.3446 109.553 85.8283 110.012 85.8283 110.593Z" fill="#69696B"/>
<path d="M79.2745 111.052C79.2261 111.052 79.1777 111.052 79.1294 111.052H78.9843V110.085H79.1294C80.4353 110.085 82.2491 110.085 83.7001 109.311C85.393 108.416 86.2152 106.651 86.2152 103.942V98.7183H87.1826V103.942C87.1826 107.013 86.1668 109.093 84.1354 110.157C82.5393 111.028 80.6771 111.052 79.2745 111.052Z" fill="#8D8D8E"/>
<path d="M77.9685 110.568C77.9685 111.125 78.428 111.584 78.9842 111.584C79.5405 111.584 79.9999 111.125 79.9999 110.568C79.9999 110.012 79.5405 109.553 78.9842 109.553C78.428 109.528 77.9685 109.988 77.9685 110.568Z" fill="#8D8D8E"/>
<path d="M86.6989 99.347C86.3603 99.347 86.0943 99.081 86.0943 98.7424V97.1463C86.0943 94.8247 84.2079 92.9383 81.8863 92.9383C79.5646 92.9383 77.6783 94.8247 77.6783 97.1463V98.7424C77.6783 99.081 77.4123 99.347 77.0737 99.347C76.7351 99.347 76.4691 99.081 76.4691 98.7424V97.1463C76.4691 94.1717 78.8875 91.7291 81.8863 91.7291C84.8851 91.7291 87.3035 94.1475 87.3035 97.1463V98.7424C87.3035 99.0568 87.0374 99.347 86.6989 99.347Z" fill="#3F3F3F"/>
<path d="M69.4075 68.2225H50.5925C53.5188 77.0738 50.8344 81.1125 50.8344 81.1125L57.3398 84.2322H62.6602L69.1657 81.1125C69.1657 81.1125 66.4813 77.0738 69.4075 68.2225Z" fill="#8E502E"/>
<path d="M79.2986 42.37C79.2986 20.0242 70.665 14.8972 60 14.8972C49.3591 14.8972 40.7013 20.0242 40.7013 42.37C40.7013 49.9395 42.0556 55.8646 44.087 60.4353C48.5368 70.4958 56.2515 74.0024 60 74.0024C63.7485 74.0024 71.4389 70.4958 75.9129 60.4353C77.9443 55.8646 79.2986 49.9395 79.2986 42.37Z" fill="#9B5C32"/>
<path d="M66.4571 63.7969C66.4571 63.7969 63.023 66.1185 60 66.1185C56.9771 66.1185 53.543 63.7969 53.543 63.7969C53.543 63.4583 56.2757 62.5151 57.4366 62.3458C58.1621 62.2249 60 62.9504 60 62.9504C60 62.9504 61.8138 62.2491 62.5152 62.3458C63.7002 62.5151 66.4571 63.7969 66.4571 63.7969Z" fill="#8C4B2F"/>
<path d="M66.4571 63.7968C66.4571 63.7968 63.023 67.0617 60 67.0617C56.9771 67.0617 53.543 63.7968 53.543 63.7968C53.543 63.7968 55.1149 64.1596 58.283 63.9661C58.815 63.942 59.5164 64.3531 59.9759 64.3531C60.387 64.3531 60.9916 63.9178 61.4511 63.9419C64.7884 64.1354 66.4571 63.7968 66.4571 63.7968Z" fill="#823F27"/>
<path d="M60 14.8972C48.2225 14.8972 40 21.0883 40 43.4341C40 43.4341 60 32.3337 60 24.208V14.8972Z" fill="#141414"/>
<path d="M59.9758 14.8972C71.7533 14.8972 80 21.0883 80 43.4341C80 43.4341 60 32.3337 60 24.208L59.9758 14.8972Z" fill="#141414"/>
<path d="M78.1379 12.7449H41.8622V27.9806H78.1379V12.7449Z" fill="#E4F0F2"/>
<path d="M60.0001 26.0943C63.1121 26.0943 65.6349 23.5715 65.6349 20.4595C65.6349 17.3475 63.1121 14.8247 60.0001 14.8247C56.888 14.8247 54.3652 17.3475 54.3652 20.4595C54.3652 23.5715 56.888 26.0943 60.0001 26.0943Z" fill="#D61E1E"/>
<path d="M63.8936 19.4196H56.1306V21.4752H63.8936V19.4196Z" fill="#E6E7E8"/>
<path d="M61.0157 16.5901H58.9601V24.3531H61.0157V16.5901Z" fill="#E6E7E8"/>
<path d="M50.8343 81.1124C50.8343 81.1124 47.2551 89.9879 59.9274 89.9879C72.5997 89.9879 69.1656 81.1124 69.1656 81.1124L59.9274 76.6626L50.8343 81.1124Z" fill="#8E502E"/>
<path d="M38.8634 50.2298C39.9033 56.3241 41.185 56.5901 43.0472 56.2757L41.0883 43.023C39.2261 43.3616 37.8234 44.1596 38.8634 50.2298Z" fill="#9B5C32"/>
<path d="M78.9601 43.0472L77.0012 56.2999C78.8392 56.6143 80.1451 56.3241 81.185 50.2539C82.2007 44.1596 80.7981 43.3616 78.9601 43.0472Z" fill="#9B5C32"/>
<path d="M42.2733 44.2805C42.1765 43.6276 42.1523 43.023 42.1765 42.5635C42.2007 41.8622 42.2974 41.4268 42.2974 41.4268L40.0242 42.2733C40.0242 42.6119 40.0242 42.9746 40.0242 43.3132C40.0242 43.3132 40.266 43.2406 40.7013 43.0955C40.6771 43.0955 40.6529 43.1197 40.6288 43.1197C40.9432 43.6518 41.3301 44.474 41.717 45.659C41.6929 45.659 42.5877 46.312 42.2733 44.2805Z" fill="#141414"/>
<path d="M77.8477 42.5635C77.8719 43.0472 77.8477 43.6276 77.7509 44.2805C77.4366 46.312 78.3072 45.659 78.3072 45.659C78.6699 44.4498 79.0811 43.6518 79.3713 43.1197C79.7582 43.2648 79.9759 43.3132 79.9759 43.3132C79.9759 42.9504 79.9759 42.6119 79.9759 42.2733L77.7268 41.4268C77.7268 41.4268 77.8235 41.8622 77.8477 42.5635Z" fill="#141414"/>
</g>
<defs>
<clipPath id="clip0_2_109">
<rect width="120" height="120" fill="white"/>
</clipPath>
</defs>
</svg>
